images/nav-images/graph.svg

<svg width="10" height="13" viewBox="0 0 10 13" fill="none" xmlns="http://www.w3.org/2000/svg">
<path d="M6 0.388916H4V12.3889H6V0.388916Z" fill="black"/>
<path d="M2 4.38892H0V12.3889H2V4.38892Z" fill="black"/>
<path d="M10 3.38892H8V12.3889H10V3.38892Z" fill="black"/>
</svg>

<svg width="10" height="13" viewBox="0 0 10 13" fill="none" xmlns="http://www.w3.org/2000/svg"><g clip-path="url(#a)" fill="#000"><path d="M6 .39H4v12h2v-12ZM2 4.39H0v8h2v-8ZM10 3.39H8v9h2v-9Z"/></g><defs><clipPath id="a"><path fill="#fff" transform="translate(0 .39)" d="M0 0h10v12H0z"/></clipPath></defs></svg>
